assets/img/braze_icons/fingerprint-02.svg

<svg fill="none" height="24" viewBox="0 0 24 24" width="24" xmlns="http://www.w3.org/2000/svg"><g clip-rule="evenodd" fill="#801ed7" fill-rule="evenodd"><path d="m6.5 10c0-3.03757 2.46243-5.5 5.5-5.5 1.0382 0 2.0121.28864 2.8423.7906.4727.28575.6241.90052.3384 1.37314s-.9005.62411-1.3731.33836c-.5269-.31854-1.1443-.5021-1.8076-.5021-1.933 0-3.5 1.567-3.5 3.5v2.95c0 .5523-.44772 1-1 1s-1-.4477-1-1zm10 .04c.5523 0 1 .4477 1 1v2.96c0 3.0376-2.4624 5.5-5.5 5.5-1.0356 0-2.00725-.2872-2.83612-.7868-.473-.2852-.62529-.8997-.34017-1.3727s.8997-.6253 1.37269-.3402c.526.3171 1.1419.4997 1.8036.4997 1.933 0 3.5-1.567 3.5-3.5v-2.96c0-.5523.4477-1 1-1z"/><path d="m12 9c.5523 0 1 .44771 1 1v4c0 .5523-.4477 1-1 1s-1-.4477-1-1v-4c0-.55229.4477-1 1-1z"/><path d="m6.87734 2.59924c1.45424-1.00829 3.22096-1.59924 5.12266-1.59924 4.9706 0 9 4.02944 9 9v1.2367c0 .5522-.4477 1-1 1s-1-.4478-1-1v-1.2367c0-3.86599-3.134-7-7-7-1.4815 0-2.85276.45912-3.98309 1.24282-.45387.31469-1.0769.20186-1.39158-.25201-.31469-.45386-.20186-1.07689.25201-1.39157zm-2.14198 3.89909c.52342.1762.8049.74336.6287 1.26679-.23583.70053-.36406 1.45171-.36406 2.23488v4c0 3.179 2.11999 5.8655 5.0255 6.7179.5299.1555.8335.7111.678 1.2411-.1555.5299-.71111.8335-1.24105.678-3.73412-1.0955-6.46245-4.5463-6.46245-8.637v-4c0-1.00291.16443-1.96947.46858-2.87297.1762-.52342.74336-.8049 1.26678-.6287zm15.21284 8.86317c.5287.1599.8277.718.6678 1.2466-.821 2.7156-2.8882 4.8869-5.5372 5.8512-.5189.1889-1.0928-.0786-1.2817-.5976-.1889-.5189.0786-1.0928.5976-1.2817 2.0597-.7498 3.669-2.441 4.3069-4.5507.1598-.5286.718-.8276 1.2466-.6678z"/></g></svg>

<svg width="24" height="24" viewBox="0 0 24 24" fill="none" xmlns="http://www.w3.org/2000/svg">
<path fill-rule="evenodd" clip-rule="evenodd" d="M6.5 10C6.5 6.96243 8.96243 4.5 12 4.5C13.0382 4.5 14.0121 4.78864 14.8423 5.2906C15.315 5.57635 15.4664 6.19112 15.1807 6.66374C14.895 7.13636 14.2802 7.28785 13.8076 7.0021C13.2807 6.68356 12.6633 6.5 12 6.5C10.067 6.5 8.5 8.067 8.5 10V12.95C8.5 13.5023 8.05228 13.95 7.5 13.95C6.94772 13.95 6.5 13.5023 6.5 12.95V10ZM16.5 10.04C17.0523 10.04 17.5 10.4877 17.5 11.04V14C17.5 17.0376 15.0376 19.5 12 19.5C10.9644 19.5 9.99275 19.2128 9.16388 18.7132C8.69088 18.428 8.53859 17.8135 8.82371 17.3405C9.10883 16.8675 9.72341 16.7152 10.1964 17.0003C10.7224 17.3174 11.3383 17.5 12 17.5C13.933 17.5 15.5 15.933 15.5 14V11.04C15.5 10.4877 15.9477 10.04 16.5 10.04Z" fill="#801ED7"/>
<path fill-rule="evenodd" clip-rule="evenodd" d="M12 9C12.5523 9 13 9.44771 13 10V14C13 14.5523 12.5523 15 12 15C11.4477 15 11 14.5523 11 14V10C11 9.44771 11.4477 9 12 9Z" fill="#801ED7"/>
<path fill-rule="evenodd" clip-rule="evenodd" d="M6.87734 2.59924C8.33158 1.59095 10.0983 1 12 1C16.9706 1 21 5.02944 21 10V11.2367C21 11.7889 20.5523 12.2367 20 12.2367C19.4477 12.2367 19 11.7889 19 11.2367V10C19 6.13401 15.866 3 12 3C10.5185 3 9.14724 3.45912 8.01691 4.24282C7.56304 4.55751 6.94001 4.44468 6.62533 3.99081C6.31064 3.53695 6.42347 2.91392 6.87734 2.59924ZM4.73536 6.49833C5.25878 6.67453 5.54026 7.24169 5.36406 7.76512C5.12823 8.46565 5 9.21683 5 10V14C5 17.179 7.11999 19.8655 10.0255 20.7179C10.5554 20.8734 10.859 21.429 10.7035 21.959C10.548 22.4889 9.99239 22.7925 9.46245 22.637C5.72833 21.5415 3 18.0907 3 14V10C3 8.99709 3.16443 8.03053 3.46858 7.12703C3.64478 6.60361 4.21194 6.32213 4.73536 6.49833ZM19.9482 15.3615C20.4769 15.5214 20.7759 16.0795 20.616 16.6081C19.795 19.3237 17.7278 21.495 15.0788 22.4593C14.5599 22.6482 13.986 22.3807 13.7971 21.8617C13.6082 21.3428 13.8757 20.7689 14.3947 20.58C16.4544 19.8302 18.0637 18.139 18.7016 16.0293C18.8614 15.5007 19.4196 15.2017 19.9482 15.3615Z" fill="#801ED7"/>
</svg>
